!!!!SEGMENT: pl-kk--kk-i-2--045-004_certon-pierre--missa-ad-imitationem-moduli-le-temps-qui-court-sanctus.krn
!!!cenid: 16xx:1672
!!!COM: Certon, Pierre
!!!COM-rismid: pe30006023
!!!CDT: ~1510-1572/02/23
!!!CNT: French
!!!OPR: Missa Ad imitationem moduli [Le temps qui court]
!!!OTL: Sanctus
!!!OMV: 004
!!!PDT:
!!!AGN: Sacred; Mass
!!!SMS-siglum: PL-Kk
!!!SMS-shelfmark: Kk.I.2
!!!SMS-shelfwork: 045-004 M
!!!NIFC-rismid: 300258063
!!!URL-scan: http://repozytorium.nifc.pl/skany/pl-kk-nut--i-2
!!!ONB-nifc: Części mszy: Kyrie, Gloria, Credo, Sanctus, Agnus Dei; skany: C: 0072; A: 0176; T: 0275-0276; B: 0376;
!!!key: d:dor
**kern	**text	**kern	**text	**kern	**text	**kern	**text
*part4	*part4	*part3	*part3	*part2	*part2	*part1	*part1
*staff4	*staff4	*staff3	*staff3	*staff2	*staff2	*staff1	*staff1
*I"BASVS	*	*I"TENOR	*	*I"ALTVS	*	*I"DISCANTVS	*
*I'B	*	*I'T	*	*I'A	*	*I'S	*
*ICvox	*	*ICvox	*	*ICvox	*	*ICvox	*
*Ibass	*	*Itenor	*	*Ialto	*	*Isoprn	*
*clefF4	*	*clefC4	*	*clefC4	*	*clefC4	*
*d:dor	*	*d:dor	*	*d:dor	*	*d:dor	*
*k[]	*	*k[]	*	*k[]	*	*k[]	*
*M2/1	*	*M2/1	*	*M2/1	*	*M2/1	*
*met(c|)	*	*met(c|)	*	*met(c|)	*	*met(c|)	*
=1	=1	=1	=1	=1	=1	=1	=1
!	!	!	!	!LO:TX:t=P:problem: Altus zapisany w kluczu tenorowym	!	!LO:TX:t=P:problem: Cantus zapisany w kluczu tenorowym	!
0r	.	0D	San-	0r	.	1r	.
.	.	.	.	.	.	1.d	San-
=2	=2	=2	=2	=2	=2	=2	=2
*	*	*lig	*	*	*	*	*
!	!	!LO:N:vis=0	!	!	!	!	!
0r	.	1F	.	0r	.	.	.
!	!	!	!	!	!	!LO:TX:t=P:problem:kreska pseudotaktowa 	!
.	.	.	.	.	.	2c\	.
!	!	!LO:N:vis=0	!	!	!	!	!
.	.	1G	.	.	.	1B	.
*	*	*Xlig	*	*	*	*	*
=3	=3	=3	=3	=3	=3	=3	=3
!	!	!LO:TX:t=P:problem:kreska pseudotaktowa 	!	!	!	!LO:TX:t=P:problem:kreska pseudotaktowa 	!
1r	.	0A	-ctus	0D	San-	0A	-ctus,
1.D	San-	.	.	.	.	.	.
=4	=4	=4	=4	=4	=4	=4	=4
*	*	*	*	*lig	*	*	*
!	!	!	!	!LO:N:vis=0	!	!	!
.	.	1r	.	1F	.	1r	.
2C/	.	.	.	.	.	.	.
!	!	!	!	!LO:N:vis=0	!	!	!
1BBn	-ctus	1.d	San-	1G	.	2.D/	San-
.	.	.	.	.	.	4E/	.
*	*	*	*	*Xlig	*	*	*
=5	=5	=5	=5	=5	=5	=5	=5
!LO:TX:t=P:problem:kreska pseudotaktowa 	!	!	!	!LO:TX:t=P:problem:kreska pseudotaktowa 	!	!	!
1AA	.	.	.	1A	-ctus	4F/	.
.	.	.	.	.	.	4G/	.
!	!	!LO:TX:t=P:problem:kreska pseudotaktowa 	!	!	!	!	!
.	.	2c\	.	.	.	1A	.
1r	.	1B	.	2r	.	.	.
.	.	.	.	1d	San-	2G/	.
=6	=6	=6	=6	=6	=6	=6	=6
!LO:TX:t=P:problem:kreska pseudotaktowa 	!	!	!	!	!	!LO:TX:t=P:problem:kreska pseudotaktowa 	!
0r	.	2A,/	-ctus	.	.	1A	-ctus
*	*	*	*ij	*	*	*	*
.	.	1A	San-	2c\	.	.	.
.	.	.	.	1B	.	1r	.
.	.	2G/	.	.	.	.	.
=7	=7	=7	=7	=7	=7	=7	=7
!	!	!	!	!LO:TX:t=P:problem:kreska pseudotaktowa 	!	!	!
1.A	San-	1F	.	1A	-ctus	2r	.
.	.	.	.	.	.	2A/	San-
!	!	!LO:TX:t=P:problem:kreska pseudotaktowa 	!	!	!	!	!
*	*	*	*	*	*	*lig	*
!	!	!	!	!	!	!LO:N:vis=0	!
.	.	1E	-ctus	1r	.	1c	.
*	*	*	*Xij	*	*	*	*
2G\	.	.	.	.	.	.	.
=8	=8	=8	=8	=8	=8	=8	=8
!	!	!	!	!	!	!LO:TX:t=P:problem:kreska pseudotaktowa 	!
!	!	!	!	!	!	!LO:N:vis=0	!
1F	-ctus	2r	.	2r	.	1d	.
.	.	1A	San-	2A/	.	.	.
!	!	!	!	!LO:TX:t=P:problem:kreska pseudotaktowa 	!	!	!
*	*	*	*	*	*	*Xlig	*
!LO:TX:t=P:problem:kreska pseudotaktowa 	!	!	!	!	!	!	!
*	*	*	*	*lig	*	*	*
!	!	!	!	!LO:N:vis=0	!	!	!
1E	.	.	.	1B	.	0.e	.
!	!	!LO:TX:t=P:problem:kreska pseudotaktowa 	!	!	!	!	!
!	!	!LO:SIC:v:t=custos A	!	!	!	!	!
.	.	2G/	.	.	.	.	.
!	!	!LO:LB:g=original	!	!	!	!	!
=9	=9	=9	=9	=9	=9	=9	=9
!	!	!	!	!LO:N:vis=0	!	!	!
*	*ij	*	*	*	*	*	*
2AA/	San-	2A/	.	1c	.	.	.
1A	.	1c	.	.	.	.	.
*	*	*	*	*Xlig	*	*	*
.	.	.	.	2A\	.	.	.
!	!	!	!	!LO:TX:t=P:problem:kreska pseudotaktowa 	!	!	!
2G\	.	1B	.	2B\	.	.	.
=10	=10	=10	=10	=10	=10	=10	=10
!	!	!	!	!LO:SIC:v:t=custos d	!	!	!
*	*	*	*	*	*	*lig	*
!	!	!	!	!	!	!LO:N:vis=0	!
2F\	.	.	.	2c\	.	1f	.
!	!	!	!	!LO:LB:g=original	!	!	!
2D/	.	1A	.	2d\	.	.	.
!	!	!	!	!LO:TX:t=P:problem:kreska pseudotaktowa 	!	!	!
!	!	!	!	!	!	!LO:N:vis=0	!
1E	.	.	.	1B	.	1e	.
.	.	2G/	.	.	.	.	.
!	!	!LO:TX:t=P:problem:kreska pseudotaktowa 	!	!	!	!	!
*	*	*	*	*	*	*Xlig	*
=11	=11	=11	=11	=11	=11	=11	=11
!LO:TX:t=P:problem:kreska pseudotaktowa 	!	!	!	!	!	!	!
!LO:SIC:v:t=custos D	!	!	!	!	!	!	!
1AA	-ctus	2.A\	.	2r	.	1c	.
.	.	.	.	2.A/	San-	.	.
.	.	4G/	.	.	.	.	.
!LO:LB:g=original	!	!	!	!	!	!	!
2r	.	4F/	.	.	.	2d\	.
.	.	4E/	.	4G/	.	.	.
!	!	!LO:TX:t=P:problem:kreska pseudotaktowa 	!	!	!	!	!
1D	San-	2D/	.	4F/	.	1f	.
!	!	!	!	!LO:TX:t=P:problem:kreska pseudotaktowa 	!	!	!
.	.	.	.	4E/	.	.	.
=12	=12	=12	=12	=12	=12	=12	=12
.	.	1A	.	2D/	.	.	.
!LO:TX:t=P:problem:kreska pseudotaktowa 	!	!	!	!	!	!	!
2C/	.	.	.	2E/	.	1e	.
*	*	*lig	*	*	*	*	*
!	!	!LO:N:vis=0	!	!	!	!	!
2BB/	.	1B	.	2F/	.	.	.
2GG/	.	.	.	2G/	.	1d	.
=13	=13	=13	=13	=13	=13	=13	=13
!	!	!LO:N:vis=0	!	!	!	!	!
1AA	.	1A	.	1E	.	.	.
.	.	.	.	.	.	2c#X\	-ctus
*	*	*Xlig	*	*	*	*	*
!	!	!LO:TX:t=P:problem:kreska pseudotaktowa 	!	!	!	!	!
0D	ctus	1A	ctus	0D	-ctus	2d\	Do-
*	*Xij	*	*	*	*	*lig	*
!	!	!	!	!	!	!LO:N:vis=0	!
.	.	.	.	.	.	1d	.
=14	=14	=14	=14	=14	=14	=14	=14
!LO:TX:t=P:problem:kreska pseudotaktowa 	!	!	!	!LO:TX:t=P:problem:kreska pseudotaktowa 	!	!	!
.	.	2r	.	.	.	.	.
*	*	*lig	*	*	*	*	*
!	!	!	!	!	!	!LO:TX:t=P:problem:kreska pseudotaktowa 	!
!	!	!	!	!	!	!LO:SIC:v:t=custos e	!
!	!	!LO:N:vis=0	!	!	!	!LO:N:vis=0	!
.	.	1A	Domi-	.	.	1f	.
1r	.	.	.	1r	.	.	.
!	!	!	!	!	!	!LO:LB:g=original	!
*	*	*	*	*	*	*Xlig	*
!	!	!LO:N:vis=0	!	!	!	!LO:TX:t=P:problem:kreska pseudotaktowa 	!
.	.	1c	.	.	.	2e\	mi-
*	*	*Xlig	*	*	*	*	*
=15	=15	=15	=15	=15	=15	=15	=15
0r	.	.	.	0r	.	2c\	-nus
!	!	!LO:TX:t=P:problem:kreska pseudotaktowa 	!	!	!	!	!
.	.	2B\	-ne	.	.	2d\	De-
.	.	2G/	De-	.	.	2e\	-us
.	.	2.A\	.	.	.	2.f\	Sab-
=16	=16	=16	=16	=16	=16	=16	=16
!LO:TX:t=P:problem:kreska pseudotaktowa 	!	!	!	!	!	!	!
0r	.	.	.	0r	.	.	.
.	.	4G/	.	.	.	4e\	.
.	.	2F/	.	.	.	1d	-ba-
.	.	1E	.	.	.	.	.
.	.	.	.	.	.	2c#X\	.
=17	=17	=17	=17	=17	=17	=17	=17
*lig	*	*	*	*	*	*	*
!LO:N:vis=0	!	!LO:TX:t=P:problem:kreska pseudotaktowa 	!	!	!	!LO:TX:t=P:problem:kreska pseudotaktowa 	!
1D	Do-	0D	-us	1r	.	1d	-oth
*	*	*	*	*lig	*	*	*
!	!	!	!	!LO:N:vis=0	!	!	!
!LO:N:vis=0.	!	!	!	!	!	!	!
1.F	.	.	.	1A	Do-	1r	.
*Xlig	*	*	*	*	*	*	*
=18	=18	=18	=18	=18	=18	=18	=18
!	!	!	!	!LO:N:vis=0.	!	!	!
.	.	0r	.	1.c	.	0r	.
2E\	mi-	.	.	.	.	.	.
2C/	-nus	.	.	.	.	.	.
!LO:TX:t=P:problem:kreska pseudotaktowa 	!	!	!	!	!	!	!
*	*	*	*	*Xlig	*	*	*
!	!	!	!	!LO:TX:t=P:problem:kreska pseudotaktowa 	!	!	!
2D/	De-	.	.	2B\	-mi-	.	.
=19	=19	=19	=19	=19	=19	=19	=19
2E\	-us	1r	.	2G/	-nus	0r	.
!LO:TX:t=P:problem:kreska pseudotaktowa 	!	!	!	!	!	!	!
2.F\	Sa-	.	.	2.A/	De-	.	.
.	.	2r	.	.	.	.	.
4E\	.	.	.	4G/	-us	.	.
1D	-ba-	1A	De-	2F/	Sab-	.	.
=20	=20	=20	=20	=20	=20	=20	=20
.	.	.	.	1E	-ba-	1r	.
!LO:TX:t=P:problem:kreska pseudotaktowa 	!	!LO:TX:t=P:problem:kreska pseudotaktowa 	!	!	!	!	!
2C/	-oth	2c\	us	.	.	.	.
!LO:TX:t=P:problem:kreska pseudotaktowa 	!	!	!	!LO:TX:t=P:problem:kreska pseudotaktowa 	!	!	!
0D	.	2B\	Sa-	1D	-oth	2r	.
.	.	2A/	-ba-	.	.	1d	Do-
=21	=21	=21	=21	=21	=21	=21	=21
!	!	!LO:TX:t=P:problem:kreska pseudotaktowa 	!	!	!	!	!
.	.	1d	-oth	2r	.	.	.
!	!	!	!	!	!	!LO:TX:t=P:problem:kreska pseudotaktowa 	!
*	*ij	*	*	*	*ij	*	*
.	.	.	.	2A/	Do-	2f\	-mi-
2r	.	1r	.	2c\	-mi-	2e\	-nus
!	!	!	!	!LO:TX:t=P:problem:kreska pseudotaktowa 	!	!	!
2D/	Do-	.	.	2B\	-nus	1d	De-
=22	=22	=22	=22	=22	=22	=22	=22
2.F\	-mi-	0r	.	2.A/	De-	.	.
.	.	.	.	.	.	2c\	-us
!LO:TX:t=P:problem:kreska pseudotaktowa 	!	!	!	!	!	!	!
4E\	-nus	.	.	4G/	-us	.	.
2D/	De-	.	.	2F/	Sab-	2B\	Sab-
2C/	-us	.	.	2E/	-ba-	1A	-ba-
=23	=23	=23	=23	=23	=23	=23	=23
!	!	!	!	!LO:TX:t=P:problem:kreska pseudotaktowa 	!	!	!
!	!	!	!	!LO:SIC:v:t=custos A	!	!	!
2BB/	Sa-	2r	.	1D	-oth	.	.
!	!	!LO:TX:t=P:problem:kreska pseudotaktowa 	!	!	!	!	!
*	*	*	*ij	*	*	*	*
2BB/	-ba-	2d\	De-	.	.	2G/	.
!	!	!	!	!	!	!LO:TX:t=P:problem:kreska pseudotaktowa 	!
!	!	!	!	!LO:LB:g=original	!	!	!
0AA	-oth	1.f	us	2r	.	1A	-oth
.	.	.	.	1A	De-	.	.
*	*Xij	*	*	*	*	*	*
=24	=24	=24	=24	=24	=24	=24	=24
!LO:TX:t=P:problem:kreska pseudotaktowa 	!	!	!	!	!	!	!
.	.	.	.	.	.	0r	.
!	!	!LO:TX:t=P:problem:kreska pseudotaktowa 	!	!LO:TX:t=P:problem:kreska pseudotaktowa 	!	!	!
.	.	2e\	Sa-	2c\	-us	.	.
!	!	!LO:SIC:v:t=custos c	!	!	!	!	!
1r	.	2d\	-ba-	2B\	.	.	.
!	!	!LO:LB:g=original	!	!	!	!	!
.	.	2c\	-oth	1A	Sa-	.	.
=25	=25	=25	=25	=25	=25	=25	=25
0r	.	2B\	De-	.	.	2r	.
!	!	!LO:TX:t=P:problem:kreska pseudotaktowa 	!	!LO:TX:t=P:problem:kreska pseudotaktowa 	!	!LO:TX:t=P:problem:kreska pseudotaktowa 	!
.	.	2B\	.	2G/	-ba-	2d\	De-
.	.	2A/	-us	2F/	-oth	2.f\	.
.	.	1B	Sa-	2D/	.	.	.
.	.	.	.	.	.	4e\	.
=26	=26	=26	=26	=26	=26	=26	=26
0r	.	.	.	2G/	.	2d\	-us
!	!	!	!	!LO:TX:t=P:problem:kreska pseudotaktowa 	!	!LO:TX:t=P:problem:kreska pseudotaktowa 	!
.	.	1A	.	2A/	.	2c\	Sab-
.	.	.	.	1E	.	2B\	.
!	!	!LO:TX:t=P:problem:kreska pseudotaktowa 	!	!	!	!	!
.	.	2G/	-ba-	.	.	2B\	.
=27	=27	=27	=27	=27	=27	=27	=27
!LO:TX:t=P:problem:kreska pseudotaktowa 	!	!	!	!	!	!	!
2r	.	2A,/	-oth	2F/	.	2A/	.
*	*	*	*Xij	*	*	*	*
!LO:TX:t=P:problem:kreska pseudotaktowa 	!	!	!	!	!	!	!
!LO:SIC:v:t=custos F	!	!	!	!LO:TX:t=P:problem:kreska pseudotaktowa 	!	!	!
2D/	De-	1A	De-	2D/	.	1d	-ba-
!LO:LB:g=original	!	!	!	!	!	!	!
2.F\	.	.	.	2.A/	.	.	.
!	!	!LO:TX:t=P:problem:kreska pseudotaktowa 	!	!	!	!LO:TX:t=P:problem:kreska pseudotaktowa 	!
.	.	2c\	-us	.	.	2c\	-oth
!LO:TX:t=P:problem:kreska pseudotaktowa 	!	!	!	!	!	!	!
4E\	-us	.	.	4G/	.	.	.
=28	=28	=28	=28	=28	=28	=28	=28
!	!	!	!	!	!	!LO:SIC:v:t=custos e	!
2D/	Sa-	2B\	Sab-	2F/	.	2d\	.
!	!	!	!	!LO:TX:t=P:problem:kreska pseudotaktowa 	!	!	!
!	!	!	!	!	!	!LO:LB:g=original	!
2C/	.	1A	.	2E/	.	1e	Do-
2BB-X/	-ba-	.	.	2F/	.	.	.
!	!	!LO:TX:t=P:problem:kreska pseudotaktowa 	!	!	!	!	!
2BB-/	.	2G/	-ba-	2D/	.	1d	-mi-
=29	=29	=29	=29	=29	=29	=29	=29
*lig	*	*	*	*	*	*	*
!LO:N:vis=0	!	!	!	!LO:TX:t=P:problem:kreska pseudotaktowa 	!	!	!
1AA	-oth	2F/	.	1A	.	.	.
!	!	!	!	!	!	!LO:TX:t=P:problem:kreska pseudotaktowa 	!
.	.	2E/	.	.	.	2c\	-nus
!LO:TX:t=P:problem:kreska pseudotaktowa 	!	!	!	!	!	!	!
!LO:N:vis=0	!	!	!	!	!	!	!
1D	.	2F/	.	2r	.	2d\	De-
.	.	2D/	-oth	2A/	De-	2f\	.
!	!	!LO:TX:t=P:problem:kreska pseudotaktowa 	!	!LO:TX:t=P:problem:kreska pseudotaktowa 	!	!	!
*Xlig	*	*	*ij	*	*	*	*
=30	=30	=30	=30	=30	=30	=30	=30
2r	.	2A/	De-	2c\	-us	2e\	-us
*	*ij	*	*	*	*	*	*
2D/	Do-	2.D/	.	2B\	Sa-	1d	Sab-
!	!	!	!	!LO:TX:t=P:problem:kreska pseudotaktowa 	!	!	!
2.F\	-mi-	.	.	2.A\	-ba-	.	.
.	.	4E/	.	.	.	.	.
!	!	!	!	!	!	!LO:TX:t=P:problem:kreska pseudotaktowa 	!
.	.	4F/	.	.	.	2c\	.
!LO:TX:t=P:problem:kreska pseudotaktowa 	!	!LO:TX:t=P:problem:kreska pseudotaktowa 	!	!LO:TX:t=P:problem:kreska pseudotaktowa 	!	!	!
4E\	-nus	4G/	.	4G/	.	.	.
=31	=31	=31	=31	=31	=31	=31	=31
2D/	De-	2A/	-us	4F/	-oth	2d\	-ba-
.	.	.	.	4E/	.	.	.
!	!	!	!	!LO:TX:t=P:problem:kreska pseudotaktowa 	!	!	!
2C/	-us	2E/	Sa-	2.G/	.	1e	.
2BB-X/	Sa-	2F/	.	.	.	.	.
!	!	!	!	!LO:SIC:v:t=custos E	!	!	!
.	.	.	.	4F/	.	.	.
!	!	!	!	!LO:LB:g=original	!	!	!
!LO:TX:t=P:problem:kreska pseudotaktowa 	!	!	!	!	!	!	!
2BB-/	ba-	2G/	-ba-	4E/	.	1d	.
.	.	.	.	4D/	.	.	.
=32	=32	=32	=32	=32	=32	=32	=32
1AA	-oth	1A	-oth	1E	.	.	.
.	.	.	.	.	.	2c#X\	-oth
!LO:TX:t=P:problem:kreska pseudotaktowa 	!	!LO:TX:t=P:problem:kreska pseudotaktowa 	!	!	!	!LO:TX:t=P:problem:kreska pseudotaktowa 	!
1D;	.	1F	.	1D;	.	1d	.
*	*Xij	*	*	*	*	*	*
=33||	=33||	=33||	=33||	=33||	=33||	=33||	=33||
*M2/1	*	*M2/1	*	*M2/1	*	*M2/1	*
*met(c|)	*	*met(c|)	*	*met(c|)	*	*met(c|)	*
!LO:TX:a:B:t=Duo	!	!LO:TX:a:B:t=Pelni ſunt\nTacet	!	!LO:TX:a:B:t=Pelni ſunt \nTacet	!	!	!
0r	.	0ryy	.	0ryy	.	1d	Ple-
.	.	.	.	.	.	2d\	ni-
.	.	.	.	.	.	2d\	-ſunt
=34	=34	=34	=34	=34	=34	=34	=34
!LO:TX:t=P:problem:kreska pseudotaktowa 	!	!	!	!	!	!	!
0r	.	0ryy	.	0ryy	.	4c\	cae-
.	.	.	.	.	.	4B\	.
.	.	.	.	.	.	4A\	.
!	!	!	!	!	!	!LO:TX:t=P:problem:kreska pseudotaktowa 	!
.	.	.	.	.	.	4G/	.
.	.	.	.	.	.	2.A/	.
.	.	.	.	.	.	8G/L	.
!	!	!	!	!	!	!LO:TX:t=P:problem:kreska pseudotaktowa 	!
.	.	.	.	.	.	8F/J	.
=35	=35	=35	=35	=35	=35	=35	=35
1D	Ple-	0ryy	.	0ryy	.	2B/	.
.	.	.	.	.	.	1A	.
2D/	-ni-	.	.	.	.	.	.
!LO:TX:t=P:problem:kreska pseudotaktowa 	!	!	!	!	!	!	!
2D/	ſunt	.	.	.	.	4G/	.
.	.	.	.	.	.	4F/	.
=36	=36	=36	=36	=36	=36	=36	=36
!	!	!	!	!	!	!LO:TX:t=P:problem:kreska pseudotaktowa 	!
4C/	cae-	0ryy	.	0ryy	.	2E/	.
4BB/	.	.	.	.	.	.	.
4AA/	.	.	.	.	.	1c	.
!LO:TX:t=P:problem:kreska pseudotaktowa 	!	!	!	!	!	!	!
4GG/	.	.	.	.	.	.	.
2AA/	.	.	.	.	.	.	.
2BB/	.	.	.	.	.	1B	.
=37	=37	=37	=37	=37	=37	=37	=37
!	!	!	!	!	!	!LO:SIC:v:t=custos A	!
2C/	.	0ryy	.	0ryy	.	.	.
!LO:TX:t=P:problem:kreska pseudotaktowa 	!	!	!	!	!	!	!
2D/	.	.	.	.	.	1A	.
1BBn	.	.	.	.	.	.	.
!	!	!	!	!	!	!LO:LB:g=original	!
.	.	.	.	.	.	2G/	.
=38	=38	=38	=38	=38	=38	=38	=38
!LO:TX:t=P:problem:kreska pseudotaktowa 	!	!	!	!	!	!	!
1AA	li	0ryy	.	0ryy	.	0.A	-li
2r	.	.	.	.	.	.	.
2.D/	et	.	.	.	.	.	.
=39	=39	=39	=39	=39	=39	=39	=39
.	.	0ryy	.	0ryy	.	.	.
4E\	.	.	.	.	.	.	.
4F\	.	.	.	.	.	.	.
!LO:TX:t=P:problem:kreska pseudotaktowa 	!	!	!	!	!	!	!
4D/	.	.	.	.	.	.	.
!	!	!	!	!	!	!LO:TX:t=P:problem:kreska pseudotaktowa 	!
2F\	ter-	.	.	.	.	1r	.
2G\	.	.	.	.	.	.	.
=40	=40	=40	=40	=40	=40	=40	=40
1D	.	0ryy	.	0ryy	.	2r	.
.	.	.	.	.	.	2.A/	et
1.A	-ra	.	.	.	.	.	.
.	.	.	.	.	.	4B\	ter-
.	.	.	.	.	.	4c\	.
!	!	!	!	!	!	!LO:TX:t=P:problem:kreska pseudotaktowa 	!
.	.	.	.	.	.	4A/	.
=41	=41	=41	=41	=41	=41	=41	=41
.	.	0ryy	.	0ryy	.	2c\	.
!LO:TX:t=P:problem:kreska pseudotaktowa 	!	!	!	!	!	!	!
2G\	.	.	.	.	.	2d\	-ra
2F\	.	.	.	.	.	0A	.
2.D/	.	.	.	.	.	.	.
=42	=42	=42	=42	=42	=42	=42	=42
.	.	0ryy	.	0ryy	.	.	.
4E\	.	.	.	.	.	.	.
1F	.	.	.	.	.	.	.
.	.	.	.	.	.	0d	et
4E/	.	.	.	.	.	.	.
!LO:TX:t=P:problem:kreska pseudotaktowa 	!	!	!	!	!	!	!
4D/	.	.	.	.	.	.	.
=43	=43	=43	=43	=43	=43	=43	=43
!	!	!	!	!	!	!LO:TX:t=P:problem:kreska pseudotaktowa 	!
4G\	.	0ryy	.	0ryy	.	.	.
!LO:SIC:v:t=custos E	!	!	!	!	!	!	!
4F\	.	.	.	.	.	.	.
!LO:LB:g=original	!	!	!	!	!	!	!
4E\	.	.	.	.	.	.	.
!LO:TX:t=P:problem:kreska pseudotaktowa 	!	!	!	!	!	!	!
4D/	.	.	.	.	.	.	.
1E	.	.	.	.	.	1c	ter-
=44	=44	=44	=44	=44	=44	=44	=44
*lig	*	*	*	*	*	*	*
!LO:N:vis=0	!	!	!	!	!	!	!
1D	.	0ryy	.	0ryy	.	2d\	.
.	.	.	.	.	.	2.A/	.
!LO:N:vis=0	!	!	!	!	!	!	!
1F	.	.	.	.	.	.	.
.	.	.	.	.	.	4B\	.
.	.	.	.	.	.	1c	.
*Xlig	*	*	*	*	*	*	*
=45	=45	=45	=45	=45	=45	=45	=45
2E\	.	0ryy	.	0ryy	.	.	.
2.F\	.	.	.	.	.	4B\	.
!	!	!	!	!	!	!LO:TX:t=P:problem:kreska pseudotaktowa 	!
.	.	.	.	.	.	4A\	.
.	.	.	.	.	.	4d\	.
4E\	.	.	.	.	.	4c\	.
1A	.	.	.	.	.	4B\	.
.	.	.	.	.	.	4A\	.
=46	=46	=46	=46	=46	=46	=46	=46
.	.	0ryy	.	0ryy	.	1B	.
!LO:TX:t=P:problem:kreska pseudotaktowa 	!	!	!	!	!	!	!
2G\	.	.	.	.	.	.	.
!	!	!	!	!	!	!LO:TX:t=P:problem:kreska pseudotaktowa 	!
2A\	.	.	.	.	.	1A,	ra
2.AA/	.	.	.	.	.	.	.
=47	=47	=47	=47	=47	=47	=47	=47
.	.	0ryy	.	0ryy	.	2.E/	et
4BB/	.	.	.	.	.	.	.
1C	.	.	.	.	.	.	.
.	.	.	.	.	.	4F/	ter-
.	.	.	.	.	.	2G/	.
!	!	!	!	!	!	!LO:TX:t=P:problem:kreska pseudotaktowa 	!
4BB/	.	.	.	.	.	2A/	.
!LO:TX:t=P:problem:kreska pseudotaktowa 	!	!	!	!	!	!	!
4AA/	.	.	.	.	.	.	.
=48	=48	=48	=48	=48	=48	=48	=48
4D/	.	0ryy	.	0ryy	.	2B/	.
4C/	.	.	.	.	.	.	.
4BB/	.	.	.	.	.	1A	.
4AA/	.	.	.	.	.	.	.
1BB	.	.	.	.	.	.	.
.	.	.	.	.	.	2G/	.
=49	=49	=49	=49	=49	=49	=49	=49
!	!	!	!	!	!	!LO:TX:t=P:problem:kreska pseudotaktowa 	!
!LO:TX:t=P:problem:kreska pseudotaktowa 	!	!	!	!	!	!LO:SIC:v:t=custos A	!
1AA	.	0ryy	.	0ryy	.	0A	ra.
2r	.	.	.	.	.	.	.
2.D/	glo-	.	.	.	.	.	.
!	!	!	!	!	!	!LO:LB:g=original	!
=50	=50	=50	=50	=50	=50	=50	=50
.	.	0ryy	.	0ryy	.	1r	.
4C/	.	.	.	.	.	.	.
4D/	.	.	.	.	.	.	.
!LO:TX:t=P:problem:kreska pseudotaktowa 	!	!	!	!	!	!	!
4E/	.	.	.	.	.	.	.
2F\	-ri-	.	.	.	.	2r	.
2D/	.	.	.	.	.	2.A/	glo-
=51	=51	=51	=51	=51	=51	=51	=51
!LO:TX:t=P:problem:kreska pseudotaktowa 	!	!	!	!	!	!	!
1F	a	0ryy	.	0ryy	.	.	.
.	.	.	.	.	.	4G/	.
.	.	.	.	.	.	4A/	.
!	!	!	!	!	!	!LO:TX:t=P:problem:kreska pseudotaktowa 	!
.	.	.	.	.	.	4B/	.
2E\	tu-	.	.	.	.	2c\	.
2.F\	-a	.	.	.	.	2A/	-ria
=52	=52	=52	=52	=52	=52	=52	=52
.	.	0ryy	.	0ryy	.	1c	.
4E\	.	.	.	.	.	.	.
!LO:TX:t=P:problem:kreska pseudotaktowa 	!	!	!	!	!	!	!
!LO:SIC:v:t=custos D	!	!	!	!	!	!	!
2C/	.	.	.	.	.	.	.
!LO:LB:g=original	!	!	!	!	!	!	!
2D,/	.	.	.	.	.	1B	.
2E/	O-	.	.	.	.	.	.
=53	=53	=53	=53	=53	=53	=53	=53
!	!	!	!	!	!	!LO:TX:t=P:problem:kreska pseudotaktowa 	!
2AA/	-san-	0ryy	.	0ryy	.	1A,	tua
2.D/	-na	.	.	.	.	.	.
.	.	.	.	.	.	2.d\	O-
4C/	.	.	.	.	.	.	.
4D/	.	.	.	.	.	.	.
!LO:TX:t=P:problem:kreska pseudotaktowa 	!	!	!	!	!	!	!
4E/	.	.	.	.	.	4c\	-san-
=54	=54	=54	=54	=54	=54	=54	=54
2F\	in	0ryy	.	0ryy	.	4d\	.
.	.	.	.	.	.	4e\	-na
2D/	ex-	.	.	.	.	2.f\	in
1F	-cel-	.	.	.	.	.	.
.	.	.	.	.	.	4e\	.
.	.	.	.	.	.	1d	ex-
=55	=55	=55	=55	=55	=55	=55	=55
1E	.	0ryy	.	0ryy	.	.	-cel-
.	.	.	.	.	.	2c#X\	-ſis.
1D	sis	.	.	.	.	1d	.
=56||	=56||	=56||	=56||	=56||	=56||	=56||	=56||
!	!	!	!	!LO:TX:a:B:t=Benedictus Tacet	!	!	!
0D	Be-	0r	.	0ryy	.	0r	.
=57	=57	=57	=57	=57	=57	=57	=57
!LO:TX:t=P:problem:kreska pseudotaktowa 	!	!LO:TX:t=P:problem:kreska pseudotaktowa 	!	!	!	!	!
1C	-ne-	0r	.	0ryy	.	0r	.
1D	-dic-	.	.	.	.	.	.
=58	=58	=58	=58	=58	=58	=58	=58
2AA/	-tur	0A	Be-	0ryy	.	1r	.
2.D/	.	.	.	.	.	.	.
.	.	.	.	.	.	0d	Be-
4C/	.	.	.	.	.	.	.
4BB/	.	.	.	.	.	.	.
!LO:TX:t=P:problem:kreska pseudotaktowa 	!	!	!	!	!	!	!
4AA/	.	.	.	.	.	.	.
=59	=59	=59	=59	=59	=59	=59	=59
1BB	.	1G	-ne	0ryy	.	.	.
!	!	!LO:TX:t=P:problem:kreska pseudotaktowa 	!	!	!	!	!
2AA/	.	1A	di-	.	.	1c	-ne-
1A	.	.	.	.	.	.	.
=60	=60	=60	=60	=60	=60	=60	=60
.	.	2D/	-ctus	0ryy	.	1d	-di-
!LO:TX:t=P:problem:kreska pseudotaktowa 	!	!	!	!	!	!	!
!LO:SIC:v:t=custos D	!	!	!	!	!	!	!
2D/	.	2.A/	.	.	.	.	.
!LO:LB:g=original	!	!	!	!	!	!	!
2D/	.	.	.	.	.	2A/	.
.	.	4G/	.	.	.	.	.
1B	.	4F/	.	.	.	2.d\	.
!	!	!LO:TX:t=P:problem:kreska pseudotaktowa 	!	!	!	!	!
.	.	4E/	.	.	.	.	.
=61	=61	=61	=61	=61	=61	=61	=61
.	.	1F	.	0ryy	.	.	.
.	.	.	.	.	.	4c\	.
1A	.	.	.	.	.	4B\	.
.	.	.	.	.	.	4A\	.
.	.	1E	.	.	.	1B	-ctus
2G\	.	.	.	.	.	.	.
=62	=62	=62	=62	=62	=62	=62	=62
!LO:TX:t=P:problem:kreska pseudotaktowa 	!	!LO:TX:t=P:problem:kreska pseudotaktowa 	!	!	!	!	!
1A	.	0A	.	0ryy	.	2A,/	.
*	*	*	*	*	*	*	*ij
.	.	.	.	.	.	2D/	Be-
!LO:TX:t=P:problem:kreska pseudotaktowa 	!	!	!	!	!	!	!
1r	.	.	.	.	.	2.F/	.
.	.	.	.	.	.	4G/	.
=63	=63	=63	=63	=63	=63	=63	=63
0D	Be-	0r	.	0ryy	.	2A/	.
.	.	.	.	.	.	1B	-ne-
.	.	.	.	.	.	1A	.
=64	=64	=64	=64	=64	=64	=64	=64
1D	-ne-	0r	.	0ryy	.	.	.
.	.	.	.	.	.	4G/	-di-
.	.	.	.	.	.	4F/	.
1C	-dic-	.	.	.	.	4E/	.
.	.	.	.	.	.	4D/	.
.	.	.	.	.	.	2E/	.
=65	=65	=65	=65	=65	=65	=65	=65
00D	-tus	2r	.	0ryy	.	2D,/	-ctus
!	!	!LO:TX:t=P:problem:kreska pseudotaktowa 	!	!	!	!	!
.	.	2D/	Be-	.	.	2.d\	Be-
.	.	2.F/	-ne-	.	.	.	.
.	.	.	.	.	.	4c\	.
.	.	.	.	.	.	4d\	.
.	.	4G/	.	.	.	4e\	.
=66	=66	=66	=66	=66	=66	=66	=66
!LO:TX:t=P:problem:kreska pseudotaktowa 	!	!	!	!	!	!	!
.	.	2A/	-di-	0ryy	.	2f\	-ne-
!	!	!	!	!	!	!LO:SIC:v:t=custos F	!
.	.	1B	.	.	.	2d\	-di-
!	!	!	!	!	!	!LO:LB:g=original	!
.	.	.	.	.	.	2.f\	.
.	.	1A	.	.	.	.	.
.	.	.	.	.	.	8e\L	.
.	.	.	.	.	.	8d\J	.
=67	=67	=67	=67	=67	=67	=67	=67
!LO:TX:t=P:problem:kreska pseudotaktowa 	!	!	!	!	!	!	!
0AA	.	.	.	0ryy	.	2c\	.
.	.	4G/	.	.	.	1d	.
.	.	4F/	-ctus	.	.	.	.
.	.	4E/	.	.	.	.	.
!	!	!LO:TX:t=P:problem:kreska pseudotaktowa 	!	!	!	!	!
.	.	4D/	.	.	.	.	.
*	*	*	*ij	*	*	*	*
.	.	2E/	Be-	.	.	2c\	.
=68	=68	=68	=68	=68	=68	=68	=68
2r	.	4D/	-ne-	0ryy	.	1d	ctus
*	*ij	*	*	*	*	*	*Xij
.	.	4E/	.	.	.	.	.
!LO:TX:t=P:problem:kreska pseudotaktowa 	!	!	!	!	!	!	!
2A\	Be-	4F/	.	.	.	.	.
!	!	!LO:TX:t=P:problem:kreska pseudotaktowa 	!	!	!	!	!
.	.	4G/	.	.	.	.	.
4A\	-ne-	2A/	-di-	.	.	2r	.
4G\	.	.	.	.	.	.	.
4F\	.	1B	.	.	.	2.d\	Be-
4E\	.	.	.	.	.	.	.
=69	=69	=69	=69	=69	=69	=69	=69
1F	-dic-	.	.	0ryy	.	.	.
.	.	.	.	.	.	4c\	-ne-
.	.	1A	-ctus	.	.	4B\	.
.	.	.	.	.	.	4A\	.
!LO:TX:t=P:problem:kreska pseudotaktowa 	!	!	!	!	!	!	!
1E	-tus	.	.	.	.	1B	-di-
!	!	!LO:TX:t=P:problem:kreska pseudotaktowa 	!	!	!	!	!
.	.	2G/	Be-	.	.	.	.
*	*Xij	*	*	*	*	*	*
=70	=70	=70	=70	=70	=70	=70	=70
!	!	!LO:SIC:v:t=custos F	!	!	!	!	!
2r	.	1A	-ne-	0ryy	.	2A,/	-ctus
2.D/	Be-	.	.	.	.	1f	Be-
!	!	!LO:LB:g=original	!	!	!	!	!
.	.	2F/	-di-	.	.	.	.
4C/	-ne-	.	.	.	.	.	.
4BB/	.	2.G/	.	.	.	1e	.
4AA/	.	.	.	.	.	.	.
=71	=71	=71	=71	=71	=71	=71	=71
1BB	-dic-	.	.	0ryy	.	.	.
.	.	4F/	.	.	.	.	.
.	.	4E/	.	.	.	1d	-ne-
.	.	4D/	.	.	.	.	.
1AA	-tus	1E	.	.	.	.	.
.	.	.	.	.	.	2c\	-di-
=72	=72	=72	=72	=72	=72	=72	=72
!	!	!LO:TX:t=P:problem:kreska pseudotaktowa 	!	!	!	!	!
2r	.	1D	-ctus	0ryy	.	2d\	.
!LO:TX:t=P:problem:kreska pseudotaktowa 	!	!	!	!	!	!	!
2D/	qui	.	.	.	.	2f\	.
2C/	ve-	1r	.	.	.	2e\	.
*	*	*	*Xij	*	*	*	*
2D/	-nit	.	.	.	.	2d\	.
=73	=73	=73	=73	=73	=73	=73	=73
4AA/	.	2r	.	0ryy	.	00e	-ctus
*	*	*	*	*	*	*	*Xij
4BB/	.	.	.	.	.	.	.
!	!	!LO:TX:t=P:problem:kreska pseudotaktowa 	!	!	!	!	!
4C/	.	2A/	qui	.	.	.	.
!LO:TX:t=P:problem:kreska pseudotaktowa 	!	!	!	!	!	!	!
4D/	.	.	.	.	.	.	.
2E/	.	2G/	ve-	.	.	.	.
4AA/	.	2A/	-nit	.	.	.	.
!LO:SIC:v:t=custos C	!	!	!	!	!	!	!
4BB/	.	.	.	.	.	.	.
!LO:LB:g=original	!	!	!	!	!	!	!
=74	=74	=74	=74	=74	=74	=74	=74
*	*	*	*ij	*	*	*	*
4C/	.	4E/	qui-	0ryy	.	.	.
4D/	.	4F/	.	.	.	.	.
4E\	.	4G/	.	.	.	.	.
!LO:TX:t=P:problem:kreska pseudotaktowa 	!	!LO:TX:t=P:problem:kreska pseudotaktowa 	!	!	!	!	!
4F\	.	4A/	.	.	.	.	.
4G\	.	4B/	.	.	.	.	.
4E\	.	4G/	.	.	.	.	.
!	!	!LO:TX:t=P:problem:kreska pseudotaktowa 	!	!	!	!	!
1A	.	2c\	-ve-	.	.	.	.
=75	=75	=75	=75	=75	=75	=75	=75
.	.	1B	-nit	0ryy	.	2r	.
!LO:TX:t=P:problem:kreska pseudotaktowa 	!	!	!	!	!	!	!
2G\	.	.	.	.	.	2d\	qui
2A\	.	2A/	qui	.	.	2c\	.
2D/	.	1B	ve-	.	.	2d\	ve-
=76	=76	=76	=76	=76	=76	=76	=76
1F	.	.	.	0ryy	.	4A\	.
.	.	.	.	.	.	4B\	.
.	.	1A	-nit	.	.	4c\	.
.	.	.	.	.	.	4d\	.
!LO:TX:t=P:problem:kreska pseudotaktowa 	!	!	!	!	!	!	!
1E	.	.	.	.	.	0e	.
!	!	!LO:TX:t=P:problem:kreska pseudotaktowa 	!	!	!	!	!
.	.	2G/	qui	.	.	.	.
=77	=77	=77	=77	=77	=77	=77	=77
!LO:TX:t=P:problem:kreska pseudotaktowa 	!	!	!	!	!	!	!
1AA	.	2A/	ve-	0ryy	.	.	.
.	.	2E/	.	.	.	.	.
*	*	*lig	*	*	*	*	*
!	!	!LO:N:vis=0	!	!	!	!LO:SIC:v:t=custos c	!
2r	.	1F	.	.	.	2A/	.
!	!	!	!	!	!	!LO:LB:g=original	!
2AA/	qui	.	.	.	.	2.c\	.
=78	=78	=78	=78	=78	=78	=78	=78
*lig	*	*	*	*	*	*	*
!LO:N:vis=0	!	!LO:N:vis=0	!	!	!	!	!
1C	Ve-	1E	.	0ryy	.	.	.
.	.	.	.	.	.	4B\	.
.	.	.	.	.	.	1A	.
*	*	*Xlig	*	*	*	*	*
!LO:N:vis=0	!	!	!	!	!	!	!
1BB	.	2D/	-nit	.	.	.	.
*	*	*	*Xij	*	*	*	*
.	.	2d\	qui	.	.	2G/	nit
!	!	!LO:TX:t=P:problem:kreska pseudotaktowa 	!	!	!	!	!
*Xlig	*	*	*	*	*	*	*
=79	=79	=79	=79	=79	=79	=79	=79
2AA,/	-nit	2c\	ve-	0ryy	.	1A	.
!LO:TX:t=P:problem:kreska pseudotaktowa 	!	!	!	!	!	!	!
2D/	qui	2d\	.	.	.	.	.
1F	Ve-	4A\	.	.	.	2r	.
.	.	4B\	.	.	.	.	.
!	!	!LO:SIC:v:t=custos d	!	!	!	!	!
.	.	4c\	.	.	.	2A/	qui
!	!	!LO:TX:t=P:problem:kreska pseudotaktowa 	!	!	!	!	!
!	!	!LO:LB:g=original	!	!	!	!	!
.	.	4d\	.	.	.	.	.
=80	=80	=80	=80	=80	=80	=80	=80
2E,\	-nit	1e	-nit	0ryy	.	2G/	ve-
*	*ij	*	*ij	*	*	*	*
2A\	qui	.	.	.	.	2A/	.
2G\	Ve-	2r	.	.	.	2E/	.
!	!	!LO:TX:t=P:problem:kreska pseudotaktowa 	!	!	!	!	!
2A\	-nit	2A/	qui	.	.	2c\	-nit
=81	=81	=81	=81	=81	=81	=81	=81
2E\	qui	2G/	ve-	0ryy	.	2B\	.
4AA/	Ve-	2A/	.	.	.	2A/	.
!LO:TX:t=P:problem:kreska pseudotaktowa 	!	!	!	!	!	!	!
4BB/	.	.	.	.	.	.	.
4C/	.	4E/	.	.	.	0e	.
4D/	.	4F/	.	.	.	.	.
4E\	.	4G/	.	.	.	.	.
!LO:TX:t=P:problem:kreska pseudotaktowa 	!	!LO:TX:t=P:problem:kreska pseudotaktowa 	!	!	!	!	!
4F\	.	4A/	.	.	.	.	.
=82	=82	=82	=82	=82	=82	=82	=82
4G\	.	4B/	.	0ryy	.	.	.
4E\	nit	4G/	-nit	.	.	.	.
1A	qui	2c\	qui	.	.	.	.
.	.	1B	ve-	.	.	2r	.
!LO:TX:t=P:problem:kreska pseudotaktowa 	!	!	!	!	!	!	!
2G\	Ve-	.	.	.	.	1d	in
=83	=83	=83	=83	=83	=83	=83	=83
!	!	!LO:TX:t=P:problem:kreska pseudotaktowa 	!	!	!	!	!
2A,\	-nit	1A	-nit	0ryy	.	.	.
*	*Xij	*	*Xij	*	*	*	*
2AA/	in	.	.	.	.	2c\	no-
2C/	no-	1r	.	.	.	2e\	-mi-
!LO:SIC:v:t=custos D	!	!	!	!	!	!	!
2BB/	-mi-	.	.	.	.	2d\	-ne
!LO:LB:g=original	!	!	!	!	!	!	!
=84	=84	=84	=84	=84	=84	=84	=84
2.D/	-ne	2r	.	0ryy	.	2.f\	.
.	.	1A	in	.	.	.	.
4C/	.	.	.	.	.	4e\	.
2AA/	.	.	.	.	.	2c\	Do-
!LO:TX:t=P:problem:kreska pseudotaktowa 	!	!LO:TX:t=P:problem:kreska pseudotaktowa 	!	!	!	!	!
2C/	.	2G/	no-	.	.	2e\	-mi-
=85	=85	=85	=85	=85	=85	=85	=85
2GG/	Do-	2B/	-mi-	0ryy	.	1d	-ni
1D	-mi-	2A/	-ne	.	.	.	.
.	.	2.c\	Do-	.	.	1r	.
!LO:TX:t=P:problem:kreska pseudotaktowa 	!	!	!	!	!	!	!
2C/	-ni	.	.	.	.	.	.
!	!	!LO:TX:t=P:problem:kreska pseudotaktowa 	!	!	!	!	!
.	.	4B\	.	.	.	.	.
=86	=86	=86	=86	=86	=86	=86	=86
2E\	.	2G/	-mi-	0ryy	.	0r	.
!	!	!LO:TX:t=P:problem:kreska pseudotaktowa 	!	!	!	!	!
2D/	.	2B\	.	.	.	.	.
2.F\	.	2A,/	-ni	.	.	.	.
*	*	*	*ij	*	*	*	*
.	.	1c	in	.	.	.	.
!LO:TX:t=P:problem:kreska pseudotaktowa 	!	!	!	!	!	!	!
4E\	.	.	.	.	.	.	.
=87	=87	=87	=87	=87	=87	=87	=87
2C/	.	.	.	0ryy	.	0r	.
2E/	.	1B	no-	.	.	.	.
2.D/	.	.	.	.	.	.	.
.	.	1A	-mi-	.	.	.	.
4C/	.	.	.	.	.	.	.
=88	=88	=88	=88	=88	=88	=88	=88
1BB	.	.	.	0ryy	.	2r	.
!	!	!LO:TX:t=P:problem:kreska pseudotaktowa 	!	!	!	!	!
*	*	*	*	*	*	*	*ij
.	.	2G/	-ne	.	.	1d	in
!LO:TX:t=P:problem:kreska pseudotaktowa 	!	!	!	!	!	!	!
1AA	.	2A/	Do-	.	.	.	.
.	.	1A	.	.	.	2c\	no-
=89	=89	=89	=89	=89	=89	=89	=89
1r	.	.	.	0ryy	.	2e\	-mi-
!	!	!LO:TX:t=P:problem:kreska pseudotaktowa 	!	!	!	!	!
.	.	2G/	-mi-	.	.	2e\	-ne
!	!	!	!	!	!	!LO:SIC:v:t=custos f	!
2r	.	2B\	-ni	.	.	2d\	Do-
!	!	!LO:SIC:v:t=custos c	!	!	!	!	!
!	!	!	!	!	!	!LO:LB:g=original	!
1D	in	2A/	in	.	.	2f\	-mi-
!	!	!LO:LB:g=original	!	!	!	!	!
=90	=90	=90	=90	=90	=90	=90	=90
.	.	2.c\	no-	0ryy	.	1e	-ni
*	*	*	*	*	*	*	*Xij
!LO:TX:t=P:problem:kreska pseudotaktowa 	!	!	!	!	!	!	!
2C/	no-	.	.	.	.	.	.
.	.	4B\	.	.	.	.	.
2E/	-mi-	2G/	-mi-	.	.	2r	.
!LO:TX:t=P:problem:kreska pseudotaktowa 	!	!LO:TX:t=P:problem:kreska pseudotaktowa 	!	!	!	!	!
2D/	-ne	2B\	-ne	.	.	1d	in
=91	=91	=91	=91	=91	=91	=91	=91
2r	.	2.A/	Do-	0ryy	.	.	.
1AA	in	.	.	.	.	2c\	no-
.	.	4G/	-mi-	.	.	.	.
.	.	2E/	-ni	.	.	2e\	-mi-
*	*	*	*Xij	*	*	*	*
!LO:TX:t=P:problem:kreska pseudotaktowa 	!	!	!	!	!	!	!
!LO:SIC:v:t=custos BB	!	!LO:TX:t=P:problem:kreska pseudotaktowa 	!	!	!	!	!
2GG/	no-	2G/	in	.	.	2e\	-ne
!LO:LB:g=original	!	!	!	!	!	!	!
=92	=92	=92	=92	=92	=92	=92	=92
2BB/	-mi-	2F/	no-	0ryy	.	2d\	Do-
*	*	*	*	*	*	*lig	*
!	!	!	!	!	!	!LO:N:vis=0	!
2AA/	-ne	1A	-mi-	.	.	1f	.
2.C/	Do-	.	.	.	.	.	.
!	!	!	!	!	!	!LO:N:vis=0	!
.	.	2.G/	-ne	.	.	1e	.
4BB/	.	.	.	.	.	.	.
*	*	*	*	*	*	*Xlig	*
=93	=93	=93	=93	=93	=93	=93	=93
2GG/	-mi-	.	.	0ryy	.	.	.
.	.	4F/	Do-	.	.	.	.
2BB/	.	4E/	.	.	.	1d	-mi-
.	.	4D/	.	.	.	.	.
1AA	-ni	1E	-mi-	.	.	.	.
.	.	.	.	.	.	2c\	-ni
=94	=94	=94	=94	=94	=94	=94	=94
0D;	.	0D	-ni	0ryy	.	0d	.
==	==	==	==	==	==	==	==
*-	*-	*-	*-	*-	*-	*-	*-
!!!system-decoration: [(s1,s2,s3,s4)]
!!!ENC: Marta Opryszak
!!!END: 2022-01-20
!!!ENC: Natalia Wrzos
!!!END: 2022-01-23
